X:1150
T:To be Played at Election
A:Wyresdale, Lancashire
B:E and J Winder, 1835-41
L:1/8
M:C|
N:the Girl I left behind me 
O:England
Z:Richard Robinson 
%%TUNEURL: http://www.leeds.ac.uk/music/Info/RRTuneBk/gettune/00001158.html
%%ID:00001158
K:C
c' | \
g>f e>d ec A>B | cc c/d/e/f/ g>f ec' | g>f e>d ec A>c | Bd G>B c2 c ::
c |\
eg ab c'g ec | dg ab c'2 ac' | ag ed e/d/c/B/ A>c | Bd GB c2 c::
